!!!COM: Scriabin, Alexander
!!!OTL: Etude
!!!OPR: 12 Etudes
!!!OPS: 8
!!!ONM: 6
!!!ODT: 1894
!!!AGN: Etude
!!!OMD: Con grazia [half-dot]=44
**kern	**kern	**dynam
*part1	*part1	*part1
*staff2	*staff1	*staff1/2
*clefF4	*clefG2	*clefG2
*k[f#c#g#]	*k[f#c#g#]	*k[f#c#g#]
*M3/4	*M3/4	*M3/4
*MM88	*MM88	*MM88
=1	=1	=1
*Xtuplet	*Xtuplet	*
4AA	4r	p
(12eL	12b (12gg#L	<
12A	12cc# 12aa	.
12EJ	12ff# 12dddJ	.
4c# 4a))	12ee 12ccc#L	.
.	12dd# 12bb#	.
.	12ee 12ccc#J	[
=2	=2	=2
4EE 4E	12gg# 12eeeL	>
.	12ddn 12bbn	.
.	12b 12gg#J	.
(8BL	12f# 12ddL	.
.	12g# 12ee	.
8EJ	.	.
.	12b 12gg#J	.
4d 4g#)	12ff# 12dddL	.
.	12ee 12ccc#	.
.	12dd 12bbJ	]
=3	=3	=3
4FF# 4F#	4cc# 4aa)	.
(12c#L	12g# (12ee#L	<
12F#	12a 12ff#	.
12C#J	12dd 12bbJ	.
4A 4f#)	12cc# 12aaL	.
.	12b# 12gg#	.
.	12cc# 12aaJ	[
!!LO:LB:g=original
=4	=4	=4
4CC# 4C#	12een 12ccc#L	>
.	12dd 12bb	.
.	12cc# 12aaJ	.
(12eL	12b# 12gg#L	.
12A	12cc# 12aa	.
12EJ	12a 12ff#J	.
4c# 4a)	12g#~ 12eeL	.
.	12f#~ 12dd	.
.	12e~ 12cc#J	.
=5	=5	=5
4DD 4D	4d 4b)	]
(12f#L	12g# (12ee#L	<
12B	12a 12ff#	.
12AJ	12een 12ccc#J	.
4D)	12dd 12bbL	.
.	12ee 12ccc#	.
.	12ff# 12dddJ	[
=6	=6	=6
4BBB 4BB	4ccc# 4aaa)	.
(12dL	12g# (12ee#L	<
12B	12a 12ff#	.
12AJ	12een 12ccc#J	.
4f#)	12dd 12bbL	.
.	12ee 12ccc#	.
.	12ff# 12dddJ	[
=7	=7	=7
*^	*	*
4ryy	4EE 4E	4bb 4ggg#)	.
*clefG2	*	*	*
(12f#L	4f#	12aa (12fff#L	>
12d	.	12bb 12ggg#	.
12BJ	.	12aa 12fff#J	.
4ee)	4g#	12gg# 12eeeL	.
.	.	12dd 12bb	.
.	.	12ee 12ccc#J	.
!!LO:LB:g=original
=8	=8	=8	=8
2dd	(4B	12ff# 12dddL	.
.	.	12ee 12ccc#	.
.	.	12dd 12bbJ	.
.	4e)	12cc# 12aaL	.
.	.	12b 12gg#	.
.	.	12a 12ff#J	.
*clefF4	*	*	*
4ryy	(12EL	12g# 12ee)	]
.	12D	12r	.
.	12C#J	12r	.
*v	*v	*	*
=9	=9	=9
4BB)	4r	.
(12f#L	12cc# (12aa#L	<
12B	12dd 12bb	.
12F#J	12ggn 12eeeJ	.
4d 4b)	12ff# 12dddL	.
.	12ee# 12ccc#	.
.	12ff# 12dddJ	[
=10	=10	=10
4FF#	12aa# 12fff#L	>
.	12een 12ccc#	.
.	12cc# 12aa#J	.
(8c#L	12g# 12eeL	.
.	12a# 12ff#	.
8F#J	.	.
.	12cc# 12aa#J	.
4e 4a#)	12ggn 12eeeL	]
.	12ff# 12ddd	.
.	12ee 12ccc#J	.
=11	=11	=11
4GGn 4Gn	4dd 4bb)	.
(12dL	12a# (12ff#L	<
12G	12b 12ggn	.
12DJ	12ee 12ccc#J	.
4B 4gn)	12dd 12bbL	.
.	12cc# 12aa#	.
.	12dd 12bbJ	[
!!LO:LB:g=original
=12	=12	=12
4DD 4D	12ff# 12dddL	>
.	12ee 12ccc#	.
.	12dd 12bbJ	.
(12f#L	12cc# 12aa#L	.
12B	12dd 12bb	.
12F#J	12b 12ggnJ	]
4d 4b)	12an~ 12ff#L	.
.	12gn~ 12ee	.
.	12f#~ 12ddJ	.
=13	=13	=13
4EE 4E	4d 4b)	.
*clefG2	*	*
(<12bL	12g#X (12ee#L	<
12d	12a 12ff#	.
12BJ	12een 12ccc#J	.
*clefF4	*	*
4E)	12dd 12bbL	.
.	12ee 12ccc#	.
.	12ff# 12dddJ	[
=14	=14	=14
4EE	4bb 4ggg#)	.
*clefG2	*	*
(12bL	12f## (12dd#L	<
12d	12g# 12ee	.
12BJ	12ee 12ccc#J	.
4E)	12ddn 12bbL	.
.	12ee 12ccc#	.
.	12ff#X 12dddJ	[
*clefF4	*	*
=15	=15	=15
4AAA 4AA	4aa 4fff#)	.
*clefG2	*	*
12bL	12gg# (12eeeL	>
12d	12aa 12fff#	.
12EJ	12gg# 12eeeJ	.
8g#L	12ff# 12dddL	.
.	12dd 12bb	.
8eJ	.	.
.	12ee 12ccc#J	.
!!LO:LB:g=original
=16	=16	=16
4A 4a	12cc# 12aaL	.
.	12a 12ff#	.
.	12g# 12eeJ	.
*clefF4	*	*
4E	12f# 12ddL	.
.	12e 12cc#	.
.	12d 12bJ	.
12AAL	4c# 4a)	]
12AA	.	.
12GG#J	.	.
=17	=17	=17
*^	*	*
4ryy	4FF#	4r	.
12aL	4ryy	(12ee 12ccc#L	p
12c#	.	12ff# 12ddd	.
12F#J	.	12ee 12ccc#J	.
4d	12dL	12a 12ff#L	.
.	12F#	12b 12gg#	.
.	12BBJ	12cc# 12aaJ	.
=18	=18	=18	=18
4c#	12c#L	12b 12gg#L	.
.	12FF#	12a 12ff#	.
.	12C#J	12e# 12cc#J	.
4ryy	4A	12f# 12ddL	.
.	.	12e# 12cc#	.
.	.	12f# 12ddJ	<
4c#	4F#	12a 12ff#L	.
.	.	12cc# 12aa	.
.	.	12a 12ff#J	.
=19	=19	=19	=19
4ryy	4GG# 4G#	12g# 12ee#L	.
.	.	12b# 12gg#	.
.	.	12cc# 12aa#J	.
6g#	12c#L	12dd# 12bb#L	.
.	12G#	12ee#X 12ccc#	.
12cc#	12e#J	12gg# 12eee#J	.
4b#	8d#L	12ff# 12ddd#L	.
.	.	12gg# 12eee#	.
.	8G#J	.	.
.	.	12ff# 12ddd#J	.
*v	*v	*	*
!!LO:LB:g=original
=20	=20	=20
8e# 8cc#L	12ccc# 12ee#L	.
.	12ff# 12ddd#	.
8C#J	.	.
.	12ee 12ccc#J	>
8G#L	12dd## 12bb#L	.
.	12ee 12ccc#	.
8e#J	.	.
.	12bn 12gg#J	.
4c#	12ddn 12bbnL	.
.	12cc# 12aa	.
.	12b 12gg#J	.
=21	=21	=21
*^	*	*
4ryy	4FF#	4a 4ff#)	.
12aL	4ryy	12ee (12ccc#L	.
12c#	.	12ff# 12ddd	.
12F#J	.	12ee 12ccc#J	.
4d	12dL	12a 12ff#L	.
.	12F#	12b 12gg#	.
.	12BBJ	12cc# 12aaJ	.
=22	=22	=22	=22
4c#	12c#L	12b 12gg#L>	.
.	12FF#	12a 12ff#	.
.	12C#J	12e# 12cc#J	.
2ryy	4A	12f# 12ddL	.
.	.	12e# 12cc#	.
.	.	12f# 12ddJ	.
.	4F# 4c#	12a 12ff#L	.
.	.	12cc# 12aa	.
.	.	12a 12ff#J	.
=23	=23	=23	=23
4GG# 4G#	4ryy	12g# 12eenL	.
.	.	12b# 12gg#	.
.	.	12cc# 12aa#J	.
*v	*v	*	*
*clefG2	*	*
*^	*	*
6g#	12c#L	12dd# 12bb#L	.
.	12G#	12ee 12ccc#	.
12cc#	12eJ	12gg# 12eeeJ	.
4b#	8d#L	12ff# 12ddd#L	.
.	.	12gg# 12eee	.
.	8G#J	.	.
.	.	12ff# 12ddd#J	.
*v	*v	*	*
!!LO:LB:g=original
=24	=24	=24
8e 8cc#L	12ee 12ccc#L	.
.	12ff# 12ddd#	.
*clefF4	*	*
8C#J	.	.
.	12ee 12ccc#J	.
8G#L	12dd# 12bb#L	.
.	12ee 12ccc#	.
[8g#J	.	.
.	12gg# 12eeeJ	.
4c# 4g#]	4ee 4ccc#)	.
=25	=25	=25
4C#	4r	.
(12g#L	12dd# (12bb#L	.
12c#	12ee 12ccc#	.
12G#J	12gg# 12eeeJ	.
4bn)	12ff# 12ddd#L	.
.	12ee 12ccc#	.
.	12bn 12gg#J	.
=26	=26	=26
8F#L	12dd# 12bbL	.
.	12cc# 12aa#	.
*clefG2	*	*
8eJ	.	.
.	12g# 12eeJ	.
4cc#	12b 12gg#L	.
.	12e 12cc#	.
.	12f# 12dd#J	.
*clefF4	*	*
4F#	12g# 12eeL	.
.	12f# 12dd#)	.
.	12e 12cc#J	.
=27	=27	=27
4C#	4r	.
*clefG2	*	*
(<12bnL	12dd# (12bb#L	.
12e	12ee 12ccc#	.
12GnJ	12ggn 12eeeJ	.
4b)	12ff# 12ddd#L	.
.	12ee 12ccc#	.
.	12bn 12ggJ	.
*clefF4	*	*
!!LO:LB:g=original
=28	=28	=28
8F#L	12ddn 12bbL	.
.	12cc# 12aa#	.
*clefG2	*	*
8eJ	.	.
.	12gn 12eeJ	.
4cc#	12b 12ggnL	.
.	12e 12cc#	.
.	12f# 12ddJ	.
*clefF4	*	*
[4F#	12g 12eeL	.
.	12f# 12dd	.
.	12e 12cc#J	.
=29	=29	=29
4BB 4F#]	4d 4b)	.
(12f#L	12cc# (12aa#L	.
12B	12dd 12bb	.
12F#J	12ff# 12dddJ	.
4an)	12ee 12ccc#L	.
.	12dd 12bb	.
.	12an 12ff#J	.
=30	=30	=30
4BBB	4f# 4dd)	.
(<12F#L	12c# 12a#L	.
12BB	12d (12b	.
12FF#J	12f# 12ddJ	.
4An)	12e 12cc#L	.
.	12d 12b	.
.	12An 12f#J	.
=31	=31	=31
8EEL	12c# 12aL	.
.	12B 12g#	.
8DJ	.	.
.	12F# 12dJ	.
4B	12A 12f#L	>
.	12d 12b	.
.	12e 12cc#J	.
4r	12f# 12ddL	.
.	12a 12ff#	.
.	12dd 12bbJ	.
!!LO:LB:g=original
=32	=32	=32
4EE 4E	12aa' 12fff#'L	.
.	12ff#' 12ddd'	.
.	12ee' 12ccc#'J	.
4A 4d 4f#	12dd 12bbL	.
.	12b 12gg#	.
.	12a 12ff#J	.
4G# 4d 4e	12g# 12eeL	.
.	12e 12cc#	.
.	12d 12bJ)	]]
=33	=33	=33
4AAA 4AA	4c# 4a	p
(12eL	12b# (12gg#L	<
12A	12cc# 12aa	.
12EJ	12dddJ	.
4c# 4a)	12ee 12ccc#L	.
.	12dd# 12bb#	.
.	12ee 12ccc#J	[
=34	=34	=34
4EE 4E	12gg# 12eeeL	>
.	12dd 12bb	.
.	12b 12gg#J	.
(8BL	12f# 12ddL	.
.	12g# 12ee	.
8EJ	.	.
.	12b 12gg#J	.
4d 4g#)	12ff# 12dddL	]
.	12ee 12ccc#	.
.	12dd 12bbJ	.
=35	=35	=35
4FF# 4F#	4cc# 4aa)	.
(12c#L	(12g# 12ee#L	<
12F#	12a 12ff#	.
12C#J	12dd 12bbJ	.
4A 4f#)	12cc# 12aaL	.
.	12b# 12gg#	.
.	12cc# 12aaJ	[
!!LO:LB:g=original
=36	=36	=36
4CC# 4C#	12een 12ccc#L	>
.	12dd 12bb	.
.	12cc# 12aaJ	.
(12eL	12b# 12gg#L	.
12A	12cc# 12aa	.
12EJ	12a 12ff#J	.
4c# 4a)	12g# 12eeL	.
.	12f# 12dd	.
.	12e 12cc#J	]
=37	=37	=37
4DD 4D	4d 4b)	.
(12f#L	12g# (12ee#L	<
12B	12a 12ff#	.
12AJ	12een 12ccc#J	.
4D)	12dd 12bbL	.
.	12ee 12ccc#	.
.	12ff# 12dddJ	[
=38	=38	=38
4BBB 4BB	4ccc# 4aaa)	<
(12dL	12g# (12ee#L	.
12B	12a 12ff#	<
12AJ	12een 12ccc#J	.
4f#)	12dd 12bbL	.
.	12ee 12ccc#	.
.	12ff# 12dddJ	[
=39	=39	=39
4DD 4D	4bb 4ggg#)	.
(12f#L	12g# (12ee#L	<
12B	12a 12ff#	.
12AJ	12een 12ccc#J	.
4D)	12dd 12bbL	.
.	12ee 12ccc#	.
.	12ff# 12dddJ	[
!!LO:LB:g=original
=40	=40	=40
4BBB 4BB	4aa 4fff#)	.
(12dL	12g# (12ee#L	<
12B	12a 12ff#	.
12AJ	12een 12ccc#J	[
4f#)	12dd 12bbL	>
.	12ee 12ccc#	.
.	12ff# 12dddJ)	]
=41	=41	=41
4EE 4E	4r	f
(12eL	12ff# (12dddL	.
12A	12gg# 12eee	.
12EJ	12ff# 12dddJ	.
4c# 4a)	12ee 12ccc#L	.
.	12b# 12gg#	.
.	12cc# 12aaJ	.
=42	=42	=42
8EE 8EL	12cc# 12aa#L	.
.	12f# 12dd	.
8F#J	.	.
.	12a# 12ff#J	.
4A# 4f#	12e 12cc#L	.
.	12d# 12b#	.
.	12e 12cc#J	.
[4E	12gn 12eeL	.
.	12f# 12ddn	.
.	12e 12cc#J	.
=43	=43	=43
4EE 4E]	4d 4b)	.
(12f#L	(12ee 12ccc#L	.
12B	12ff# 12ddd	.
12F#J	12ee 12ccc#J	.
4d 4b)	12dd 12bbL	.
.	12cc# 12aa#	.
.	12dd 12bbJ	.
!!LO:LB:g=original
=44	=44	=44
8EE 8EL	12dd# 12bb#L	.
.	12g# 12ee	.
8G#J	.	.
.	12b# 12gg#J	.
4B# 4g#	12f# 12dd#L	.
.	12e# 12cc##	.
.	12f# 12dd#J	.
[4E	12a 12ff#L	.
.	12g# 12een	.
.	12f# 12dd#J	.
=45	=45	=45
4EE 4E]	4e 4cc#)	.
*clefG2	*	*
(12g#L	12ff# (12ddd#L	.
12c#	12gg# 12eee	.
12G#J	12ff# 12ddd#J	.
4c# 4g# 4cc#)	12ee 12ccc#L	.
.	12dd# 12bb#	.
.	12ee 12ccc#J	.
*clefF4	*	*
=46	=46	=46
4EE 4E	12g# 12eeL	.
.	12dd# 12bb#	.
.	12ee 12ccc#J	.
*clefG2	*	*
(12g#L	12ff# 12ddd#L	.
12c#	12gg# 12eee	.
12G#J	12ff# 12ddd#J	.
4c# 4g# 4cc#)	12ee 12ccc#L	.
.	12dd# 12bb#	.
.	12ee 12ccc#J	.
*clefF4	*	*
!!LO:LB:g=original
=47	=47	=47
4EE 4E	12gg# 12eeeL)	>
.	12cc# (12aa#	.
.	12dd 12bbJ	.
*clefG2	*	*
4dn 4g# 4ddn	12ff# 12dddnL)	.
.	12a# (12ff##	.
.	12b 12gg#J	.
4r	12dd 12bbL)	.
.	12f## (12dd#	.
.	12g# 12eeJ	.
*clefF4	*	*
=48	=48	=48
2E	12b 12gg#L)	.
.	(12c# 12a#	.
.	12d 12bJ	.
.	12g#) 12eeL	.
.	(12A# 12f##	.
.	12B 12g#J	.
4r	12f# 12ddL	.
.	12d 12b	.
.	12e 12cc#J	.
=49	=49	=49
4AAA 4AA	4c#) 4a	p
(12c#L	12a (12ff#L	.
12Gn	12b- 12ggn	.
12AAJ	12ff# 12dddJ	.
4B- 4gn)	12ee 12ccc#L	.
.	12dd# 12bb#	.
.	12ee 12ccc#J	.
=50	=50	=50
4AAA 4AA	12ff# 12dddL	.
.	12ccn 12aa	.
.	12a 12ff#J	.
(8AL	12e 12ccL	.
.	12f# 12dd	.
8DJ	.	.
.	12a 12ff#J	.
4cn 4f#)	12ee 12cccnL	.
.	12dd 12bb	.
.	12cc 12aaJ	.
!!LO:LB:g=original
=51	=51	=51
4AAA 4AA	12b 12gg#L	.
.	12ccn 12aa	.
.	12b 12gg#J	.
(12dL	12a# 12ff##L	.
12B	12b 12gg#	.
12FnJ	12ee 12ccc#J	.
4B 4g#)	12dd 12bbL	.
.	12cc# 12aa#	.
.	12dd 12bbJ	.
=52	=52	=52
4AAA 4AA	12gg# 12eeeL	.
.	12dd 12bb	.
.	12b 12gg#J	.
(8BL	12f# 12ddL	.
.	12g# 12ee	.
8EJ	.	.
.	12b 12gg#J	.
4d 4g#)	12ff# 12dddL	.
.	12ee 12ccc#	.
.	12dd 12bbJ	.
=53	=53	=53
4AAA 4AA	4cc# 4aa)	pp
(12c#L	12a (12ff#L	.
12Gn	12b- 12ggn	.
12AAJ	12ff# 12dddJ	.
4B- 4gn)	12ee 12ccc#L	.
.	12dd# 12bb#	.
.	12ee 12ccc#J	.
=54	=54	=54
4AAA 4AA	12ff# 12dddL	.
.	12ccn 12aa	.
.	12a 12ff#J	.
(8AL	12e 12ccL	.
.	12f# 12dd	.
8DJ	.	.
.	12a 12ff#J	.
4cn 4f#)	12ee 12cccnL	.
.	12dd 12bb	.
.	12cc 12aaJ	.
!!LO:LB:g=original
=55	=55	=55
4AAA 4AA	12b 12gg#XL	.
.	12ccn 12aa	.
.	12b 12gg#J	.
(12dL	12a# 12ff##L	.
12B	12b 12gg#	.
12FnJ	12ee 12ccc#XJ	.
4B 4g#)	12dd 12bbL	.
.	12cc# 12aa#	.
.	12dd 12bbJ	.
=56	=56	=56
4AAA 4AA	12gg# 12eeeL	.
.	12dd 12bb	.
.	12b 12gg#J	.
(8BL	12f# 12ddL	.
.	12g# 12ee	.
8EJ	.	.
.	12b 12gg#J	.
4d 4g#)	12ff# 12dddL	.
.	12ee 12ccc#	.
.	12dd 12bbJ	.
=57	=57	=57
4AA 4E	4cc# 4aa)	.
(12eL	12b# (12gg#L	.
12A	12cc# 12aa	.
12EJ	12ff# 12dddJ	.
4c# 4a)	12ee 12ccc#L	.
.	12dd# 12bb#	.
.	12ee 12ccc#J	.
=58	=58	=58
4AA 4E	12gg# 12eeeL	.
.	12dd 12bb	.
.	12b 12gg#J	.
(8BL	12f# 12ddL	.
.	12g# 12ee	.
8EJ	.	.
.	12b 12gg#J	.
4d 4g#)	12ff# 12dddL	.
.	12ee 12ccc#	.
.	12dd 12bbJ	.
!!LO:LB:g=original
=59	=59	=59
4AA 4E	4cc# 4aa)	.
(12eL	12b# (12gg#L	.
12A	12cc# 12aa	.
12EJ	12ff# 12dddJ	.
4c# 4a)	12ee 12ccc#L	.
.	12dd# 12bb#	.
.	12ee 12ccc#J	.
=60	=60	=60
4AA 4E	12gg# 12eeeL	.
.	12dd 12bb	.
.	12b 12gg#J	.
(8BL	12f# 12ddL	.
.	12g# 12ee	.
8EJ	.	.
.	12b 12gg#J	.
4d ()4g#	12ff# 12dddL	.
.	12ee 12ccc#	.
.	12dd 12bbJ	.
=61	=61	=61
4AA 4E	4cc# 4aa)	<
(12eL	12b# (12gg#L	.
12A	12cc# 12aa	.
12EJ	12ff# 12dddJ	.
4c# 4a)	12ee 12ccc#L	.
.	12dd 12bbn	.
.	12cc# 12aaJ)	.
!!LO:LB:g=original
=62	=62	=62
4EE 4E	4r	.
(12eL	12b# (12gg#L	.
12A	12cc# 12aa	.
12EJ	12a 12ff#J	.
4c#)	12g# 12eeL	.
.	12f# 12dd	.
.	12e 12cc#J)	.
=63	=63	=63
4AAA 4AA	4r	.
8AL	12d# (12b#L	>
.	12e 12cc#	.
8AAJ	.	.
.	12dn 12bnJ	.
8EL	12c# 12aL	.
.	12G# 12e	.
8EEJ	.	.
.	12F# 12dJ	.
*	*clefF4	*clefF4
=64	=64	=64
8AAA 8AAL	12E 12c#L	.
.	12D 12B	.
8EEJ	.	.
.	12C# 12AJ	.
8AAA 8AAL	12E 12c#L	pp
.	12D 12B	.
8EEJ	.	.
.	12C# 12AJ	.
8AAA 8AAL	12E 12c#L	.
.	12D 12B	.
8EEJ	.	.
.	12C# 12AJ)	.
=65	=65	=65
*8ba	*	*
4AAAA 4AAA	4r	.
*X8ba	*	*
*	*clefG2	*clefG2
4E 4A 4e	4a 4cc# 4aa	.
4r	4r	.
==	==	==
*-	*-	*-
!!!RDF**kern: > = above
!!!RDF**kern: < = below
!!!RDF**dynam: > = dim.
!!!PPP: A.N. Skryabin: Polnoe sobranie sochinenii dlia fortepiano, vol.1 Moscow: Muzgiz, 1947. Plate M. 18650 Г.
!!!URL-pdf: https://s9.imslp.org/files/imglnks/usimg/7/75/IMSLP517076-PMLP7375-Scriabin_-_Etude_Op.8_No.1_(etc).pdf#page=17 Muzgiz, 1947. Plate M. 18650
!!!ENC: Craig Stuart Sapp
!!!END: 2004/09/04
!!!EED: Craig Stuart Sapp
!!!EEV: 2023/02/20
